22x22/apps/sk1-color-picker.svg

<svg xmlns="http://www.w3.org/2000/svg" width="22" height="22" version="1.1">
 <path style="opacity:0.2" d="M 6.878656,2.5000001 A 1.2577615,1.2250623 0 0 0 5.790605,3.1114023 L 3.4799331,6.9988012 1.169261,10.8862 a 1.2577615,1.2250623 0 0 0 0,1.227599 l 2.3106721,3.8874 2.3106719,3.887398 A 1.2577615,1.2250623 0 0 0 6.878656,20.5 H 11.5 16.121344 a 1.2577615,1.2250623 0 0 0 1.088871,-0.611403 l 2.309853,-3.887398 2.310671,-3.8874 a 1.2577615,1.2250623 0 0 0 0,-1.227599 L 19.520068,6.9988012 17.210215,3.1114023 A 1.2577615,1.2250623 0 0 0 16.121344,2.5000001 H 11.5 Z"/>
 <path style="fill:#3f474a" d="M 6.878656,2.0000001 A 1.2577615,1.2250623 0 0 0 5.790605,2.6114023 L 3.4799331,6.4988012 1.169261,10.3862 a 1.2577615,1.2250623 0 0 0 0,1.227599 l 2.3106721,3.8874 2.3106719,3.887398 A 1.2577615,1.2250623 0 0 0 6.878656,20 H 11.5 16.121344 a 1.2577615,1.2250623 0 0 0 1.088871,-0.611403 l 2.309853,-3.887398 2.310671,-3.8874 a 1.2577615,1.2250623 0 0 0 0,-1.227599 L 19.520068,6.4988012 17.210215,2.6114023 A 1.2577615,1.2250623 0 0 0 16.121344,2.0000001 H 11.5 Z"/>
 <path style="opacity:0.2" d="m 7.4472656,4.5 -4.0527344,7 4.0527344,7 h 8.1054684 l 4.052735,-7 -4.052735,-7 z"/>
 <path style="fill:#73d216" d="m 7.4473036,4 -4.0524523,6.999886 8.1050997,1.3e-4 z"/>
 <path style="fill:#ffe721" d="M 3.3946892,11.000242 7.4473363,18 11.499984,11.000242 Z"/>
 <path style="fill:#f57900" d="m 7.4475958,18 8.1050992,-1.3e-4 -4.052452,-6.999887 z"/>
 <path style="fill:#ef2929" d="m 15.552761,17.999935 4.052453,-6.999855 -8.1051,-1.29e-4 z"/>
 <path style="fill:#8c398d" d="M 19.605311,11.000049 15.552664,4.000291 11.500016,11.000049 Z"/>
 <path style="fill:#3465a4" d="M 15.552858,4.0002586 7.4477582,4.000388 11.500211,11.000275 Z"/>
 <path style="opacity:0.1;fill:#f4f4f7" d="M 6.8789062,2 A 1.2577615,1.2250623 0 0 0 5.7910156,2.6113281 L 3.4804688,6.4980469 1.1699219,10.386719 A 1.2577615,1.2250623 0 0 0 1.0273438,11.248047 1.2577615,1.2250623 0 0 1 1.1699219,10.886719 L 3.4804688,6.9980469 5.7910156,3.1113281 A 1.2577615,1.2250623 0 0 1 6.8789062,2.5 H 11.5 16.121094 a 1.2577615,1.2250623 0 0 1 1.089844,0.6113281 l 2.308593,3.8867188 2.310547,3.8886721 a 1.2577615,1.2250623 0 0 1 0.142578,0.365234 1.2577615,1.2250623 0 0 0 -0.142578,-0.865234 L 19.519531,6.4980469 17.210938,2.6113281 A 1.2577615,1.2250623 0 0 0 16.121094,2 H 11.5 Z"/>
 <path style="opacity:0.1;fill:#f4f4f7" d="M 7.4472656,4 3.3945312,11 3.5390625,11.25 7.4472656,4.5 H 15.552734 L 19.460938,11.25 19.605469,11 15.552734,4 Z"/>
</svg>

<svg xmlns="http://www.w3.org/2000/svg" width="22" height="22"><path style="opacity:.2" d="M6.879 2.5a1.258 1.225 0 0 0-1.088.611L3.48 7l-2.31 3.887a1.258 1.225 0 0 0 0 1.228L3.48 16l2.31 3.888a1.258 1.225 0 0 0 1.089.611h9.242a1.258 1.225 0 0 0 1.09-.611L19.52 16l2.31-3.887a1.258 1.225 0 0 0 0-1.228L19.52 7 17.21 3.11a1.258 1.225 0 0 0-1.09-.611H11.5z"/><path style="fill:#3f474a" d="M6.879 2a1.258 1.225 0 0 0-1.088.611L3.48 6.5l-2.31 3.887a1.258 1.225 0 0 0 0 1.228L3.48 15.5l2.31 3.888A1.258 1.225 0 0 0 6.88 20h9.242a1.258 1.225 0 0 0 1.09-.611l2.31-3.888 2.31-3.887a1.258 1.225 0 0 0 0-1.228L19.52 6.5 17.21 2.61A1.258 1.225 0 0 0 16.12 2H11.5z"/><path style="opacity:.2" d="m7.447 4.5-4.052 7 4.052 7h8.106l4.052-7-4.052-7z"/><path style="fill:#73d216" d="m7.447 4-4.052 7H11.5z"/><path style="fill:#ffe721" d="m3.395 11 4.052 7 4.053-7z"/><path style="fill:#f57900" d="M7.448 18h8.105L11.5 11z"/><path style="fill:#ef2929" d="m15.553 18 4.052-7H11.5z"/><path style="fill:#8c398d" d="m19.605 11-4.052-7-4.053 7z"/><path style="fill:#3465a4" d="M15.553 4H7.448l4.052 7z"/><path style="opacity:.1;fill:#f4f4f7" d="M6.879 2a1.258 1.225 0 0 0-1.088.611l-2.31 3.887-2.311 3.889a1.258 1.225 0 0 0-.143.861 1.258 1.225 0 0 1 .143-.361l2.31-3.889 2.311-3.887A1.258 1.225 0 0 1 6.879 2.5h9.242a1.258 1.225 0 0 1 1.09.611l2.309 3.887 2.31 3.889a1.258 1.225 0 0 1 .143.365 1.258 1.225 0 0 0-.143-.865l-2.31-3.889-2.31-3.887A1.258 1.225 0 0 0 16.122 2H11.5z"/><path style="opacity:.1;fill:#f4f4f7" d="m7.447 4-4.052 7 .144.25L7.447 4.5h8.106l3.908 6.75.144-.25-4.052-7z"/></svg>
